svg/fluentui-system-icons/ic_fluent_beaker_20_filled.svg

<svg width="20" height="20" viewBox="0 0 20 20" fill="none" xmlns="http://www.w3.org/2000/svg">
<path d="M7.24987 4V8.74704C7.24987 9.15896 7.14809 9.5645 6.95357 9.9276L6.11121 11.5H13.8885L13.0462 9.9276C12.8517 9.5645 12.7499 9.15896 12.7499 8.74704V4H13.4999C13.776 4 13.9999 3.77614 13.9999 3.5C13.9999 3.22386 13.776 3 13.4999 3H6.49988C6.22374 3 5.99988 3.22386 5.99988 3.5C5.99988 3.77614 6.22374 4 6.49988 4H7.24987ZM14.4243 12.5H5.57549L4.34783 14.7916C3.81252 15.7909 4.53644 16.9999 5.67005 16.9999H14.3297C15.4633 16.9999 16.1872 15.7909 15.6519 14.7916L14.4243 12.5Z" fill="#212121"/>
</svg>

<svg xmlns="http://www.w3.org/2000/svg" width="20" height="20"><path d="M7.25 4v4.747a2.5 2.5 0 0 1-.296 1.18L6.11 11.5h7.778l-.843-1.572a2.5 2.5 0 0 1-.296-1.181V4h.75a.5.5 0 0 0 0-1h-7a.5.5 0 0 0 0 1h.75Zm7.174 8.5H5.575l-1.227 2.292A1.5 1.5 0 0 0 5.67 17h8.66a1.5 1.5 0 0 0 1.322-2.208L14.424 12.5Z"/></svg>
